svg/u1f613.svg

<svg viewBox="0 0 128 128" xmlns="http://www.w3.org/2000/svg">
  <g id="gold">
    <radialGradient id="face_1_" cx="63.6" cy="1992.9" gradientTransform="matrix(1 0 0 1 0 -1930)" gradientUnits="userSpaceOnUse" r="56.9597">
      <stop offset="0.5" stop-color="#FDE030"/>
      <stop offset="0.92" stop-color="#F7C02B"/>
      <stop offset="1" stop-color="#F4A223"/>
    </radialGradient>
    <path id="face" d="M63.6,118.8c-27.9,0-58-17.5-58-55.9S35.7,7,63.6,7c15.5,0,29.8,5.1,40.4,14.4 c11.5,10.2,17.6,24.6,17.6,41.5s-6.1,31.2-17.6,41.4C93.4,113.6,79,118.8,63.6,118.8z" fill="url(#face_1_)"/>
    <path d="M111.49,29.67c5.33,8.6,8.11,18.84,8.11,30.23c0,16.9-6.1,31.2-17.6,41.4 c-10.6,9.3-25,14.5-40.4,14.5c-18.06,0-37-7.35-48.18-22.94c10.76,17.66,31,25.94,50.18,25.94c15.4,0,29.8-5.2,40.4-14.5 c11.5-10.2,17.6-24.5,17.6-41.4C121.6,50.16,118.13,38.84,111.49,29.67z" fill="#EB8F00"/>
  </g>
  <g id="faces">
    <g id="eyes">
      <path d="M73.71,74c-0.99-1.55-0.54-3.62,1.01-4.61c0.26-0.17,0.55-0.3,0.85-0.39 c3.38-1.33,6.98-2.05,10.61-2.12c3.63,0.06,7.23,0.74,10.64,2c1.81,0.52,2.86,2.41,2.33,4.22c-0.08,0.27-0.19,0.54-0.33,0.78 c-1.02,1.52-2.94,2.15-4.66,1.54c-2.51-0.96-5.16-1.5-7.85-1.6c-2.7,0.09-5.37,0.63-7.89,1.6C76.71,76.12,74.75,75.53,73.71,74z" fill="#422B0D"/>
      <path d="M29.11,74c-0.99-1.57-0.52-3.63,1.05-4.62C30.42,69.22,30.7,69.09,31,69 c3.38-1.34,6.98-2.05,10.62-2.12c3.63,0.06,7.23,0.74,10.63,2c1.81,0.53,2.85,2.43,2.33,4.24c-0.08,0.27-0.19,0.52-0.33,0.76 c-1.02,1.52-2.94,2.16-4.67,1.54c-2.51-0.96-5.16-1.5-7.85-1.6c-2.7,0.09-5.37,0.63-7.89,1.6C32.13,76.13,30.15,75.54,29.11,74z" fill="#422B0D"/>
    </g>
  </g>
  <g id="facial_expressions">
    <path id="mouth" d="M64,87.2c10.8,0,17.8,7.9,19.7,11.6c0.7,1.4,0.7,2.6,0.1,3.1c-0.64,0.4-1.46,0.4-2.1,0 c-0.32-0.13-0.62-0.3-0.9-0.5c-4.9-3.52-10.77-5.44-16.8-5.5c-6.01,0.08-11.87,1.96-16.8,5.4c-0.28,0.2-0.58,0.37-0.9,0.5 c-0.64,0.4-1.46,0.4-2.1,0c-0.6-0.6-0.6-1.7,0.1-3.1C46.2,95.1,53.2,87.2,64,87.2z" fill="#422B0D"/>
    <path d="M29.66,56.52c-8.47,0-15-8.2-15-15.23c0-4.95,2.21-10.68,5.33-18.62c0.39-1.17,0.91-2.34,1.43-3.65 c1.49-3.72,2.81-7.75,4.81-11.24c0.95-1.7,3.1-2.3,4.79-1.35c0.56,0.32,1.03,0.78,1.35,1.35c1.86,3.43,3.13,7.14,5.07,11.47 c5.47,12.24,7,17.19,7,22.14C44.63,48.32,38,56.52,29.66,56.52z" fill="#44B3E6"/>
    <path d="M38.81,47.13c-1.91,3-6.25,2.4-6.25-2.51c0-3.14,0.64-19.25,3.33-17 C40.28,31.29,41.53,43,38.81,47.13z" fill="#81D4FA"/>
  </g>
</svg>

<svg viewBox="0 0 128 128" xmlns="http://www.w3.org/2000/svg">
  <defs>
    <radialGradient id="face_1_" cx="63.6" cy="62.9" gradientUnits="userSpaceOnUse" r="56.9597">
      <stop offset="0.5" stop-color="#FDE030"/>
      <stop offset="0.92" stop-color="#F7C02B"/>
      <stop offset="1" stop-color="#F4A223"/>
    </radialGradient>
  </defs>
  <path id="face" d="M63.6,118.8 C35.7,118.8 5.6,101.3 5.6,62.9 C5.6,24.5 35.7,7 63.6,7 C79.1,7 93.4,12.1 104,21.4 C115.5,31.6 121.6,46 121.6,62.9 C121.6,79.8 115.5,94.1 104,104.3 C93.4,113.6 79,118.8 63.6,118.8 Z" fill="url(#face_1_)"/>
  <path d="M111.49,29.67 C116.82,38.27 119.6,48.51 119.6,59.9 C119.6,76.8 113.5,91.1 102,101.3 C91.4,110.6 77,115.8 61.6,115.8 C43.54,115.8 24.6,108.45 13.42,92.86 C24.18,110.52 44.42,118.8 63.6,118.8 C79,118.8 93.4,113.6 104,104.3 C115.5,94.1 121.6,79.8 121.6,62.9 C121.6,50.16 118.13,38.84 111.49,29.67 Z" fill="#EB8F00"/>
  <path d="M73.71,74 C72.72,72.45 73.17,70.38 74.72,69.39 C74.98,69.22 75.27,69.09 75.57,69 C78.95,67.67 82.55,66.95 86.18,66.88 C89.81,66.94 93.41,67.62 96.82,68.88 C98.63,69.4 99.68,71.29 99.15,73.1 C99.07,73.37 98.96,73.64 98.82,73.88 C97.8,75.4 95.88,76.03 94.16,75.42 C91.65,74.46 89,73.92 86.31,73.82 C83.61,73.91 80.94,74.45 78.42,75.42 C76.71,76.12 74.75,75.53 73.71,74 Z" fill="#422B0D"/>
  <path d="M29.11,74 C28.12,72.43 28.59,70.37 30.16,69.38 C30.42,69.22 30.7,69.09 31,69 C34.38,67.66 37.98,66.95 41.62,66.88 C45.25,66.94 48.85,67.62 52.25,68.88 C54.06,69.41 55.1,71.31 54.58,73.12 C54.5,73.39 54.39,73.64 54.25,73.88 C53.23,75.4 51.31,76.04 49.58,75.42 C47.07,74.46 44.42,73.92 41.73,73.82 C39.03,73.91 36.36,74.45 33.84,75.42 C32.13,76.13 30.15,75.54 29.11,74 Z" fill="#422B0D"/>
  <path id="mouth" d="M64,87.2 C74.8,87.2 81.8,95.1 83.7,98.8 C84.4,100.2 84.4,101.4 83.8,101.9 C83.16,102.3 82.34,102.3 81.7,101.9 C81.38,101.77 81.08,101.6 80.8,101.4 C75.9,97.88 70.03,95.96 64,95.9 C57.99,95.98 52.13,97.86 47.2,101.3 C46.92,101.5 46.62,101.67 46.3,101.8 C45.66,102.2 44.84,102.2 44.2,101.8 C43.6,101.2 43.6,100.1 44.3,98.7 C46.2,95.1 53.2,87.2 64,87.2 Z" fill="#422B0D"/>
  <path d="M29.66,56.52 C21.19,56.52 14.66,48.32 14.66,41.29 C14.66,36.34 16.87,30.61 19.99,22.67 C20.38,21.5 20.9,20.33 21.42,19.02 C22.91,15.3 24.23,11.27 26.23,7.78 C27.18,6.08 29.33,5.48 31.02,6.43 C31.58,6.75 32.05,7.21 32.37,7.78 C34.23,11.21 35.5,14.92 37.44,19.25 C42.91,31.49 44.44,36.44 44.44,41.39 C44.63,48.32 38,56.52 29.66,56.52 Z" fill="#44B3E6"/>
  <path d="M38.81,47.13 C36.9,50.13 32.56,49.53 32.56,44.62 C32.56,41.48 33.2,25.37 35.89,27.62 C40.28,31.29 41.53,43 38.81,47.13 Z" fill="#81D4FA"/>
</svg>
